src/assets/desktop/p77.svg

<svg width="195" height="33" viewBox="0 0 195 33" fill="none" xmlns="http://www.w3.org/2000/svg">
<path d="M45.4629 4.96484H59.5909L63.5271 8.90104L63.5573 20.4528L59.6211 24.3588H45.4705V4.9724L45.4629 4.96484ZM58.0421 21.4425L60.2558 19.2289L60.2029 10.0872L58.0421 7.87355H48.7645L48.8174 21.4425H58.0421Z" fill="white"/>
<path d="M68.3162 4.96484H84.7107V7.87355H71.6102L71.6631 13.1621H81.6584V15.9877H71.6329L71.6631 21.4425H85.0129L84.9827 24.3512H68.3086V4.96484H68.3162Z" fill="white"/>
<path d="M87.7041 20.4143L87.6738 8.86252L91.6327 4.95654H105.035V7.86525H93.1513L90.9603 10.0789L90.9905 19.2206L93.1513 21.4342H101.152L103.366 19.2206L103.336 15.8132H96.3546L96.3848 13.1009H106.66L106.63 20.4369L102.693 24.3429H91.6176L87.6814 20.4067L87.7041 20.4143Z" fill="white"/>
<path d="M110.996 4.96484H127.39V7.87355H114.29L114.343 13.1621H124.338V15.9877H114.313L114.343 21.4425H127.693L127.662 24.3512H110.988V4.96484H110.996Z" fill="white"/>
<path d="M131.432 4.96484H136.97L145.801 21.0043H146.3L146.247 4.96484H149.458V24.3512H144.003L135.141 8.31175H134.673L134.643 24.3512H131.432V4.96484Z" fill="white"/>
<path d="M161.178 23.2708L168.929 4.96484H173.78L181.728 23.2708L181.675 24.3512H178.547L171.619 7.87355H171.068L164.2 24.3512H161.125L161.178 23.2708ZM166.776 16.6223H175.941L177.134 19.5311H165.613L166.776 16.6223Z" fill="white"/>
<path d="M183.946 21.6608H187.822L187.792 7.64615H183.916V4.95654H194.969V7.64615H191.093L191.124 21.6608H194.999L194.969 24.3505H183.916L183.946 21.6608Z" fill="white"/>
<path d="M0 1.77544L23.7683 0L30.2128 3.20336L34.9272 15.911L30.7643 23.0808L0 32.842V1.783V1.77544ZM26.8735 19.4921L29.548 15.5257L26.1482 4.91837L22.3706 3.00693L6.73159 4.60105L8.4617 24.4558L26.8735 19.4921Z" fill="#FDEB27"/>
</svg>

<svg xmlns="http://www.w3.org/2000/svg" width="195" height="33" fill="none"><path fill="#fff" d="M45.463 4.965H59.59L63.527 8.9l.03 11.552-3.936 3.906h-14.15V4.972zm12.58 16.478 2.213-2.214-.053-9.142-2.16-2.213h-9.279l.053 13.569zM68.316 4.965h16.395v2.909h-13.1l.052 5.288h9.995v2.826H71.633l.03 5.454h13.35l-.03 2.91H68.309V4.964zm19.388 15.449-.03-11.551 3.959-3.906h13.402v2.908H93.151l-2.19 2.214.03 9.142 2.16 2.213h8.001l2.214-2.213-.03-3.408h-6.981l.03-2.712h10.275l-.03 7.336-3.937 3.906H91.618l-3.937-3.936zm23.292-15.449h16.394v2.909h-13.1l.053 5.288h9.995v2.826h-10.025l.03 5.454h13.35l-.031 2.91h-16.674V4.964zm20.436 0h5.538l8.831 16.04h.499l-.053-16.04h3.211V24.35h-5.455l-8.862-16.04h-.468l-.03 16.04h-3.211zm29.746 18.305 7.751-18.305h4.851l7.948 18.306-.053 1.08h-3.128l-6.928-16.477h-.551L164.2 24.35h-3.075zm5.598-6.648h9.165l1.193 2.91h-11.521zm17.17 5.038h3.876l-.03-14.014h-3.876v-2.69h11.053v2.69h-3.876l.031 14.015h3.875l-.03 2.69h-11.053z"/><path fill="#FDEB27" d="M0 1.775 23.768 0l6.445 3.203 4.714 12.708-4.163 7.17L0 32.842zm26.874 17.717 2.674-3.966-3.4-10.608-3.777-1.911L6.73 4.6l1.73 19.855z"/></svg>
